assets/twitch/original.svg

<svg viewBox="0 0 24 24" xmlns="http://www.w3.org/2000/svg" fill="#9146FF"><path d="m11.571 4.714h1.715v5.143h-1.716zm4.715 0h1.714v5.143h-1.714zm-10.286-4.714-4.286 4.286v15.428h5.143v4.286l4.286-4.286h3.428l7.715-7.714v-12zm14.571 11.143-3.428 3.428h-3.429l-3 3v-3h-3.857v-12.857h13.714z"/></svg>

<svg xmlns="http://www.w3.org/2000/svg" fill="#9146ff" viewBox="0 0 24 24"><path d="M11.571 4.714h1.715v5.143H11.57zm4.715 0H18v5.143h-1.714zM6 0 1.714 4.286v15.428h5.143V24l4.286-4.286h3.428L22.286 12V0zm14.571 11.143-3.428 3.428h-3.429l-3 3v-3H6.857V1.714h13.714z"/></svg>
